Sources/FrostedUI/Resources/Icons.xcassets/sticker12.imageset/sticker-12.svg

<svg width="12" height="12" viewBox="0 0 12 12" fill="none" xmlns="http://www.w3.org/2000/svg" data-fui-icon="true">
  <g clip-path="url(#clip0_6194_96)">
    <path
      d="M7.36924 0.111589C9.08789 -0.194345 10.7631 0.898811 11.1603 2.61894L11.4303 3.78838L11.4971 4.11673C12.0997 7.5021 9.94745 10.8017 6.55908 11.584L5.38964 11.8539C3.66947 12.251 1.95259 11.2245 1.47415 9.5457L1.43212 9.38101L0.442246 5.0934C0.0324013 3.3177 1.13953 1.54593 2.91518 1.13588L7.20279 0.146007L7.36924 0.111589ZM3.25261 2.59743C2.28415 2.82113 1.68031 3.78747 1.9038 4.75598L2.89367 9.04359C3.11737 10.012 4.08371 10.6159 5.05222 10.3924L6.22165 10.1224C6.3861 10.0844 6.54654 10.0381 6.70312 9.98519L6.27475 8.1297C5.95546 6.74671 6.818 5.36636 8.20099 5.04707L10.0574 4.61848C10.0363 4.45458 10.0067 4.29022 9.96875 4.1258L9.69876 2.95637C9.47507 1.98791 8.50872 1.38407 7.54022 1.60756L3.25261 2.59743ZM8.53842 6.50863C7.96262 6.64156 7.60337 7.21648 7.73631 7.79228L8.07659 9.2662C9.08684 8.51577 9.78072 7.40532 10.0123 6.16835L8.53842 6.50863Z"
      fill="currentColor"
    />
  </g>
  <defs>
    <clipPath id="clip0_6194_96"><path fill="currentColor" d="M0 0H12V12H0z" /></clipPath>
  </defs>
</svg>

<svg xmlns="http://www.w3.org/2000/svg" width="12" height="12" fill="none" data-fui-icon="true" viewBox="0 0 12 12"><g clip-path="url(#a)"><path fill="currentColor" d="M7.37.112a3.3 3.3 0 0 1 3.79 2.507l.27 1.17.067.328a6.5 6.5 0 0 1-4.938 7.467l-1.17.27a3.3 3.3 0 0 1-3.915-2.308l-.042-.165-.99-4.288a3.3 3.3 0 0 1 2.473-3.957l4.288-.99zM3.252 2.597a1.8 1.8 0 0 0-1.35 2.159l.99 4.288a1.8 1.8 0 0 0 2.16 1.348l1.169-.27q.247-.057.481-.137L6.275 8.13A2.57 2.57 0 0 1 8.2 5.047l1.856-.429a5 5 0 0 0-.088-.492l-.27-1.17A1.8 1.8 0 0 0 7.54 1.608zM8.538 6.51a1.07 1.07 0 0 0-.802 1.283l.34 1.474a5.02 5.02 0 0 0 1.936-3.098z"/></g><defs><clipPath id="a"><path fill="currentColor" d="M0 0h12v12H0z"/></clipPath></defs></svg>
